X: 1
T: Holtwood
C: Jess Arrowsmith
R: Reel
M: 4/4
L: 1/8
K: A
Z: ABC transcription by Verge Roller
r: 32
|: "A" a2 gf e2 e2 | "D"  f2 ed "A" cdec | "E" d2 cB "A" cdec | "E" dcBd "A" cB A2|
"A" a2 gf e2 e2 | "D" f2 ed "A" cdec | "E" d2 cB "A" cdec| "E" d2 B2 "A" A4 :|
|: "E" B2 BB B2 B2 | "D" ABcA "E" B4 | "E" BABc dcde | "D" fedc dcBA |
"E" B2 BB B2 B2 | [1 "D" ABcA "E" B4 |  "E" BABc dcde | "D" fedc "E" Beee :| [2 "D" ABcA "E" B2 A2 | "A" a2 g2 "C#m" f2 e2 | "E7" d2 c2 "A" B2 A2 |]
